svg/openzfs-dark.svg

<svg xmlns="http://www.w3.org/2000/svg" xml:space="preserve" viewBox="0 0 512 512"><path d="M412.3 72.7c-5.3 5.4-13.8 5.4-19.2 0-5.3-5.4-5.3-14 0-19.3 5.3-5.4 13.8-5.4 19.2 0 5.2 5.3 5.2 13.9 0 19.3m-3 380.9c-9.3 9.3-24.2 9.3-33.4 0-9.3-9.3-9.3-24.3 0-33.6s24.3-9.3 33.4 0c9.2 9.3 9.2 24.4 0 33.6m-79.2-45.9c-9.3-9.3-9.3-24.4 0-33.6 9.3-9.3 24.3-9.3 33.4 0 9.3 9.3 9.3 24.4 0 33.6-9.2 9.4-24.2 9.4-33.4 0M318 453.6c-9.3 9.3-24.3 9.3-33.4 0-9.3-9.3-9.3-24.3 0-33.6s24.2-9.3 33.4 0 9.2 24.4 0 33.6m-79.1-45.9c-9.3-9.3-9.3-24.4 0-33.6 9.3-9.3 24.3-9.3 33.4 0 9.3 9.3 9.3 24.4 0 33.6-9.3 9.4-24.3 9.4-33.4 0m-12.1 45.9c-9.3 9.3-24.3 9.3-33.4 0-9.3-9.3-9.3-24.3 0-33.6s24.3-9.3 33.4 0 9.2 24.4 0 33.6m-79.2-45.9c-9.3-9.3-9.3-24.3 0-33.6s24.3-9.3 33.4 0c9.3 9.3 9.3 24.4 0 33.6-9.2 9.3-24.3 9.4-33.4 0m-12.1 45.9c-9.3 9.3-24.3 9.3-33.4 0-9.3-9.3-9.3-24.4 0-33.6 9.3-9.3 24.2-9.3 33.4 0s9.2 24.4 0 33.6M99 55.1c5.3-5.4 13.8-5.4 19.2 0s5.3 14 0 19.3c-5.3 5.4-13.9 5.4-19.2 0s-5.4-14 0-19.3m29.4 29.6c5.3-5.4 13.8-5.4 19.2 0 5.3 5.4 5.3 14 0 19.3-5.3 5.4-13.9 5.4-19.2 0s-5.3-14 0-19.3m29.5 29.6c5.3-5.4 13.9-5.4 19.2 0s5.3 14 0 19.3c-5.3 5.4-13.8 5.4-19.2 0-5.3-5.4-5.3-14 0-19.3m0-59.2c5.3-5.4 13.8-5.4 19.2 0 5.3 5.4 5.3 14 0 19.3-5.3 5.4-13.8 5.4-19.2 0-5.3-5.3-5.3-14 0-19.3m29.5 88.7c5.3-5.4 13.9-5.4 19.2 0s5.3 14 0 19.3c-5.3 5.4-13.8 5.4-19.2 0-5.4-5.3-5.4-13.9 0-19.3m0-59.1c5.3-5.4 13.8-5.4 19.2 0 5.3 5.4 5.3 14 0 19.3-5.3 5.4-13.8 5.4-19.2 0s-5.4-14 0-19.3m29.5-29.6c5.3-5.4 13.8-5.4 19.2 0 5.3 5.4 5.3 14 0 19.3-5.3 5.4-13.9 5.4-19.2 0-5.4-5.3-5.4-13.9 0-19.3m29.3 88.7c5.3-5.4 13.8-5.4 19.2 0 5.3 5.4 5.3 14 0 19.3-5.3 5.4-13.8 5.4-19.2 0-5.2-5.3-5.2-13.9 0-19.3m0-59.1c5.3-5.4 13.8-5.4 19.2 0 5.3 5.4 5.3 14 0 19.3-5.3 5.4-13.9 5.4-19.2 0-5.2-5.4-5.2-14 0-19.3m29.5-29.6c5.3-5.4 13.9-5.4 19.2 0s5.3 14 0 19.3c-5.3 5.4-13.8 5.4-19.2 0-5.2-5.3-5.2-13.9 0-19.3m9.1 273.2c9.3-9.3 24.3-9.3 33.4 0 9.3 9.3 9.3 24.4 0 33.6-9.3 9.3-24.3 9.3-33.4 0-9.3-9.4-9.3-24.4 0-33.6m10.1-136.4c-5.3 5.4-13.8 5.4-19.2 0-5.3-5.4-5.3-14 0-19.3 5.3-5.4 13.9-5.4 19.2 0 5.3 5.3 5.3 14 0 19.3m0-59.1c-5.3 5.4-13.8 5.4-19.2 0-5.3-5.4-5.3-14 0-19.3 5.3-5.4 13.9-5.4 19.2 0s5.3 14 0 19.3m-48.7 69.5c5.3-5.4 13.8-5.4 19.2 0 5.3 5.4 5.3 14 0 19.3-5.3 5.4-13.8 5.4-19.2 0-5.2-5.4-5.2-14.1 0-19.3m-7.1 80.1c9.3-9.3 24.3-9.3 33.4 0 9.3 9.3 9.3 24.3 0 33.6s-24.3 9.3-33.4 0c-9.3-9.3-9.3-24.4 0-33.6m-12.2 45.9c9.3 9.3 9.3 24.4 0 33.6-9.3 9.3-24.3 9.3-33.4 0-9.3-9.3-9.3-24.3 0-33.6 9.2-9.3 24.3-9.3 33.4 0m-10-214.8c5.3-5.4 13.8-5.4 19.2 0 5.3 5.4 5.3 14 0 19.3-5.3 5.4-13.8 5.4-19.2 0-5.4-5.3-5.4-13.9 0-19.3m0 59.2c5.3-5.4 13.8-5.4 19.2 0 5.3 5.4 5.3 14 0 19.4s-13.9 5.4-19.2 0c-5.4-5.5-5.4-14.2 0-19.4m88.3-29.6c5.3-5.4 13.8-5.4 19.2 0 5.3 5.4 5.3 14 0 19.3-5.3 5.4-13.8 5.4-19.2 0-5.4-5.3-5.4-13.9 0-19.3m0-59.1c5.3-5.4 13.8-5.4 19.2 0 5.3 5.4 5.3 14 0 19.3-5.3 5.4-13.8 5.4-19.2 0s-5.4-14 0-19.3m29.5 29.5c5.3-5.4 13.9-5.4 19.2 0s5.3 14 0 19.3c-5.3 5.4-13.8 5.4-19.2 0-5.4-5.3-5.4-13.9 0-19.3m0-59.1c5.3-5.4 13.9-5.4 19.2 0s5.3 13.9 0 19.3-13.8 5.4-19.2 0-5.4-14 0-19.3m29.4 29.5c5.3-5.4 13.9-5.4 19.2 0s5.3 14 0 19.3c-5.3 5.4-13.9 5.4-19.2 0-5.3-5.3-5.3-13.9 0-19.3m146.8-44.8c0-21.5-17.4-39.1-39-39.1H40.1c-21.5 0-39 17.5-39 39.1V188h58l-58 136v148.9c0 21.5 17.4 39.1 39 39.1h431.8c21.5 0 39-17.5 39-39.1V324h-58l58-136z"/></svg>

<?xml version="1.0" encoding="utf-8"?>
<!-- Generator: Adobe Illustrator 28.2.0, SVG Export Plug-In . SVG Version: 6.00 Build 0)  -->
<svg version="1.1"
	 id="Layer_1" xmlns:rdf="http://www.w3.org/1999/02/22-rdf-syntax-ns#" xmlns:dc="http://purl.org/dc/elements/1.1/" xmlns:cc="http://creativecommons.org/ns#"
	 xmlns="http://www.w3.org/2000/svg" xmlns:xlink="http://www.w3.org/1999/xlink" x="0px" y="0px" viewBox="0 0 512 512"
	 style="enable-background:new 0 0 512 512;" xml:space="preserve">
<path d="M412.3,72.7c-5.3,5.4-13.8,5.4-19.2,0c-5.3-5.4-5.3-14,0-19.3c5.3-5.4,13.8-5.4,19.2,0C417.5,58.7,417.5,67.3,412.3,72.7
	 M409.3,453.6c-9.3,9.3-24.2,9.3-33.4,0c-9.3-9.3-9.3-24.3,0-33.6c9.3-9.3,24.3-9.3,33.4,0C418.5,429.3,418.5,444.4,409.3,453.6
	 M330.1,407.7c-9.3-9.3-9.3-24.4,0-33.6c9.3-9.3,24.3-9.3,33.4,0c9.3,9.3,9.3,24.4,0,33.6C354.3,417.1,339.3,417.1,330.1,407.7
	 M318,453.6c-9.3,9.3-24.3,9.3-33.4,0c-9.3-9.3-9.3-24.3,0-33.6c9.3-9.3,24.2-9.3,33.4,0C327.2,429.3,327.2,444.4,318,453.6
	 M238.9,407.7c-9.3-9.3-9.3-24.4,0-33.6c9.3-9.3,24.3-9.3,33.4,0c9.3,9.3,9.3,24.4,0,33.6C263,417.1,248,417.1,238.9,407.7
	 M226.8,453.6c-9.3,9.3-24.3,9.3-33.4,0c-9.3-9.3-9.3-24.3,0-33.6c9.3-9.3,24.3-9.3,33.4,0C235.9,429.3,236,444.4,226.8,453.6
	 M147.6,407.7c-9.3-9.3-9.3-24.3,0-33.6c9.3-9.3,24.3-9.3,33.4,0c9.3,9.3,9.3,24.4,0,33.6C171.8,417,156.7,417.1,147.6,407.7
	 M135.5,453.6c-9.3,9.3-24.3,9.3-33.4,0c-9.3-9.3-9.3-24.4,0-33.6c9.3-9.3,24.2-9.3,33.4,0C144.7,429.3,144.7,444.4,135.5,453.6
	 M99,55.1c5.3-5.4,13.8-5.4,19.2,0s5.3,14,0,19.3c-5.3,5.4-13.9,5.4-19.2,0C93.7,69,93.6,60.4,99,55.1 M128.4,84.7
	c5.3-5.4,13.8-5.4,19.2,0c5.3,5.4,5.3,14,0,19.3c-5.3,5.4-13.9,5.4-19.2,0C123.1,98.6,123.1,90,128.4,84.7 M157.9,114.3
	c5.3-5.4,13.9-5.4,19.2,0c5.3,5.4,5.3,14,0,19.3c-5.3,5.4-13.8,5.4-19.2,0C152.6,128.2,152.6,119.6,157.9,114.3 M157.9,55.1
	c5.3-5.4,13.8-5.4,19.2,0c5.3,5.4,5.3,14,0,19.3c-5.3,5.4-13.8,5.4-19.2,0C152.6,69.1,152.6,60.4,157.9,55.1 M187.4,143.8
	c5.3-5.4,13.9-5.4,19.2,0c5.3,5.4,5.3,14,0,19.3c-5.3,5.4-13.8,5.4-19.2,0C182,157.8,182,149.2,187.4,143.8 M187.4,84.7
	c5.3-5.4,13.8-5.4,19.2,0c5.3,5.4,5.3,14,0,19.3c-5.3,5.4-13.8,5.4-19.2,0C182,98.6,182,90,187.4,84.7 M216.9,55.1
	c5.3-5.4,13.8-5.4,19.2,0c5.3,5.4,5.3,14,0,19.3c-5.3,5.4-13.9,5.4-19.2,0C211.5,69.1,211.5,60.5,216.9,55.1 M246.2,143.8
	c5.3-5.4,13.8-5.4,19.2,0c5.3,5.4,5.3,14,0,19.3c-5.3,5.4-13.8,5.4-19.2,0C241,157.8,241,149.2,246.2,143.8 M246.2,84.7
	c5.3-5.4,13.8-5.4,19.2,0c5.3,5.4,5.3,14,0,19.3c-5.3,5.4-13.9,5.4-19.2,0C241,98.6,241,90,246.2,84.7 M275.7,55.1
	c5.3-5.4,13.9-5.4,19.2,0c5.3,5.4,5.3,14,0,19.3c-5.3,5.4-13.8,5.4-19.2,0C270.5,69.1,270.5,60.5,275.7,55.1 M284.8,328.3
	c9.3-9.3,24.3-9.3,33.4,0c9.3,9.3,9.3,24.4,0,33.6c-9.3,9.3-24.3,9.3-33.4,0C275.5,352.5,275.5,337.5,284.8,328.3 M294.9,191.9
	c-5.3,5.4-13.8,5.4-19.2,0c-5.3-5.4-5.3-14,0-19.3c5.3-5.4,13.9-5.4,19.2,0C300.2,177.9,300.2,186.6,294.9,191.9 M294.9,132.8
	c-5.3,5.4-13.8,5.4-19.2,0c-5.3-5.4-5.3-14,0-19.3c5.3-5.4,13.9-5.4,19.2,0C300.2,118.9,300.2,127.5,294.9,132.8 M246.2,202.3
	c5.3-5.4,13.8-5.4,19.2,0c5.3,5.4,5.3,14,0,19.3c-5.3,5.4-13.8,5.4-19.2,0C241,216.2,241,207.5,246.2,202.3 M239.1,282.4
	c9.3-9.3,24.3-9.3,33.4,0c9.3,9.3,9.3,24.3,0,33.6c-9.3,9.3-24.3,9.3-33.4,0C229.8,306.7,229.8,291.6,239.1,282.4 M226.9,328.3
	c9.3,9.3,9.3,24.4,0,33.6c-9.3,9.3-24.3,9.3-33.4,0c-9.3-9.3-9.3-24.3,0-33.6C202.7,319,217.8,319,226.9,328.3 M216.9,113.5
	c5.3-5.4,13.8-5.4,19.2,0c5.3,5.4,5.3,14,0,19.3c-5.3,5.4-13.8,5.4-19.2,0C211.5,127.5,211.5,118.9,216.9,113.5 M216.9,172.7
	c5.3-5.4,13.8-5.4,19.2,0c5.3,5.4,5.3,14,0,19.4c-5.3,5.4-13.9,5.4-19.2,0C211.5,186.6,211.5,177.9,216.9,172.7 M305.2,143.1
	c5.3-5.4,13.8-5.4,19.2,0c5.3,5.4,5.3,14,0,19.3c-5.3,5.4-13.8,5.4-19.2,0C299.8,157.1,299.8,148.5,305.2,143.1 M305.2,84
	c5.3-5.4,13.8-5.4,19.2,0c5.3,5.4,5.3,14,0,19.3c-5.3,5.4-13.8,5.4-19.2,0C299.8,97.9,299.8,89.3,305.2,84 M334.7,113.5
	c5.3-5.4,13.9-5.4,19.2,0c5.3,5.4,5.3,14,0,19.3c-5.3,5.4-13.8,5.4-19.2,0C329.3,127.5,329.3,118.9,334.7,113.5 M334.7,54.4
	c5.3-5.4,13.9-5.4,19.2,0c5.3,5.4,5.3,13.9,0,19.3c-5.3,5.4-13.8,5.4-19.2,0C329.3,68.3,329.3,59.7,334.7,54.4 M364.1,83.9
	c5.3-5.4,13.9-5.4,19.2,0c5.3,5.4,5.3,14,0,19.3c-5.3,5.4-13.9,5.4-19.2,0C358.8,97.9,358.8,89.3,364.1,83.9 M510.9,39.1
	c0-21.5-17.4-39.1-39-39.1H40.1c-21.5,0-39,17.5-39,39.1V188h58l-58,136v148.9c0,21.5,17.4,39.1,39,39.1h431.8
	c21.5,0,39-17.5,39-39.1V324h-58l58-136L510.9,39.1L510.9,39.1z"/>
</svg>
